brandFactory_export/2.Regular/Flecha derecha_2Regular (1).svg

<?xml version="1.0" encoding="UTF-8"?>
<svg width="24px" height="24px" viewBox="0 0 24 24" version="1.1" xmlns="http://www.w3.org/2000/svg" xmlns:xlink="http://www.w3.org/1999/xlink">
    <title>2.Regular/Flecha derecha_2Regular (1)</title>
    <g id="Symbols" stroke="none" stroke-width="1" fill="none" fill-rule="evenodd">
        <g id="2.Regular/Flecha-derecha_2Regular-(1)" fill="#5CB615" fill-rule="nonzero">
            <path d="M11.8722689,23.6268908 C11.6907563,23.6268908 11.512605,23.5932773 11.3445378,23.5260504 C10.8235294,23.3142857 10.5042017,22.8067227 10.5109244,22.1983193 L10.5042017,17.8184874 C10.4941176,17.7983193 10.4773109,17.7714286 10.4571429,17.7512605 L2.19831933,17.7277311 C1.45882353,17.7378151 0.917647059,17.5529412 0.537815126,17.1663866 C0.157983193,16.7798319 -0.0134453782,16.2352941 0.00672268908,15.4957983 L0.00672268908,8.2487395 C-0.00336134454,7.74453782 0.0403361345,7.02184874 0.527731092,6.51428036 C1.01848739,6.00672269 1.73781513,5.93613445 2.23865546,5.92941176 L2.2487395,5.92941176 L10.302521,5.93277311 C10.3495798,5.92941176 10.4268908,5.90252101 10.4907563,5.86890756 L10.487395,1.59663866 L10.487395,1.58991597 C10.4941176,0.561344538 10.9848739,0.211764706 11.2773109,0.0941176471 C11.7781513,-0.107563025 12.3563025,0.0773109244 12.8638655,0.598319328 L23.2537815,11.0521008 C23.3579832,11.1529412 23.6571429,11.4487395 23.6538096,11.8823529 C23.6538096,12.0638655 23.5932773,12.3361345 23.3243697,12.594958 L13.1529412,23.0386555 C12.7865546,23.4218487 12.3226891,23.6268908 11.8722689,23.6268908 Z M2.19831933,16.4201681 L10.5478992,16.4436975 C11.2504202,16.4436975 11.8151261,17.1798319 11.8151261,17.7882353 L11.8218487,22.2016807 L11.8218487,22.2117647 C11.8218487,22.2756303 11.8352941,22.3058824 11.8386555,22.312605 C11.8621849,22.3294118 12.0201681,22.3327731 12.2084034,22.1344538 L12.2151261,22.1277311 L22.2184874,11.8621849 L11.9361345,1.51932773 L11.9294118,1.51260504 C11.8857143,1.46554622 11.8453782,1.43193277 11.8117647,1.40504202 C11.805042,1.45546218 11.7983193,1.51932773 11.7983193,1.6 L11.805042,6.05378151 C11.805042,6.83697479 10.8336134,7.24705882 10.3092437,7.24705882 L2.25882353,7.24369748 C1.85546218,7.25042017 1.58319328,7.31428571 1.47226891,7.42857143 C1.36134454,7.54285714 1.30756303,7.82184874 1.31764706,8.23193277 L1.31764706,15.5327731 C1.31092437,15.7815126 1.33109244,16.107563 1.47226891,16.2554622 C1.61680672,16.4 1.9394958,16.4268908 2.18823529,16.4235294 C2.19159664,16.4201681 2.19495798,16.4201681 2.19831933,16.4201681 Z" id="Flecha-derecha_2Regular-(1)"></path>
        </g>
    </g>
</svg>

<svg width="24" height="24" viewBox="0 0 24 24" xmlns="http://www.w3.org/2000/svg"><path d="M11.872 23.627c-.181 0-.36-.034-.527-.1-.521-.213-.84-.72-.834-1.329l-.007-4.38a.273.273 0 00-.047-.067l-8.259-.023c-.74.01-1.28-.175-1.66-.562-.38-.386-.551-.93-.531-1.67V8.249c-.01-.504.033-1.227.52-1.735.491-.507 1.21-.578 1.712-.585h.01l8.054.004a.566.566 0 00.188-.064l-.004-4.272V1.59c.007-1.029.498-1.378.79-1.496.501-.202 1.08-.017 1.587.504l10.39 10.454c.104.1.403.397.4.83 0 .182-.06.454-.33.713L13.153 23.039c-.366.383-.83.588-1.28.588zM2.198 16.42l8.35.024c.702 0 1.267.736 1.267 1.344l.007 4.414v.01c0 .064.013.094.017.1.023.017.181.02.37-.178l.006-.006 10.003-10.266L11.936 1.52l-.007-.006a1.04 1.04 0 00-.117-.108c-.007.05-.014.114-.014.195l.007 4.454c0 .783-.971 1.193-1.496 1.193l-8.05-.003c-.404.006-.676.07-.787.185-.11.114-.164.393-.154.803v7.3c-.007.25.013.576.154.723.145.145.467.172.716.169.004-.004.007-.004.01-.004z" fill="#5CB615" fill-rule="nonzero"/></svg>
